Src/Delivery/studio/bitmaps/src/mini/6/4.svg

<?xml version="1.0" encoding="UTF-8" standalone="no"?>
<svg
   xmlns:dc="http://purl.org/dc/elements/1.1/"
   xmlns:cc="http://creativecommons.org/ns#"
   xmlns:rdf="http://www.w3.org/1999/02/22-rdf-syntax-ns#"
   xmlns:svg="http://www.w3.org/2000/svg"
   xmlns="http://www.w3.org/2000/svg"
   xmlns:sodipodi="http://sodipodi.sourceforge.net/DTD/sodipodi-0.dtd"
   xmlns:inkscape="http://www.inkscape.org/namespaces/inkscape"
   height="100"
   viewBox="0 0 100 100"
   width="100"
   version="1.1"
   id="svg2"
   sodipodi:docname="4.svg"
   inkscape:version="0.92.3 (2405546, 2018-03-11)">
  <metadata
     id="metadata8">
    <rdf:RDF>
      <cc:Work
         rdf:about="">
        <dc:format>image/svg+xml</dc:format>
        <dc:type
           rdf:resource="http://purl.org/dc/dcmitype/StillImage" />
        <dc:title></dc:title>
      </cc:Work>
    </rdf:RDF>
  </metadata>
  <defs
     id="defs6" />
  <sodipodi:namedview
     pagecolor="#ffffff"
     bordercolor="#666666"
     borderopacity="1"
     objecttolerance="10"
     gridtolerance="10"
     guidetolerance="10"
     inkscape:pageopacity="0"
     inkscape:pageshadow="2"
     inkscape:window-width="1680"
     inkscape:window-height="1027"
     id="namedview4"
     showgrid="true"
     inkscape:zoom="4.72"
     inkscape:cx="34.628401"
     inkscape:cy="50.043173"
     inkscape:window-x="1912"
     inkscape:window-y="-8"
     inkscape:window-maximized="1"
     inkscape:current-layer="svg2">
    <inkscape:grid
       type="xygrid"
       id="grid819" />
  </sodipodi:namedview>
  <g
     id="g818">
    <path
       sodipodi:nodetypes="cscccscccscsccc"
       inkscape:connector-curvature="0"
       id="rect4546"
       d="M 25,10 C 16.043699,11.669562 10,16.779455 10,25 V 40 C 9.671402,43.605639 4.9640657,46.880682 2.2457627,50 4.9640657,53.119318 9.671402,56.394361 10,60 v 15 c 0,8.220545 6.043699,13.330438 15,15 H 40 V 85 C 17.766361,81.83954 23.389831,78.335974 23.389831,66.612454 23.389831,58.975282 13.351563,50 13.351563,50 c 0,0 10.038268,-10.246468 10.038268,-17.88364 C 23.389831,20.39284 17.766361,18.160459 40,15 v -5 z"
       style="opacity:1;fill:#006400;fill-opacity:1;fill-rule:evenodd;stroke:none;stroke-width:0;stroke-linecap:square;stroke-linejoin:miter;stroke-miterlimit:4;stroke-dasharray:none;stroke-dashoffset:0;stroke-opacity:1;paint-order:fill markers stroke" />
    <path
       style="opacity:1;fill:#006400;fill-opacity:1;fill-rule:evenodd;stroke:none;stroke-width:0;stroke-linecap:square;stroke-linejoin:miter;stroke-miterlimit:4;stroke-dasharray:none;stroke-dashoffset:0;stroke-opacity:1;paint-order:fill markers stroke"
       d="m 75,10 c 8.956301,1.669562 15,6.779455 15,15 v 15 c 0.328598,3.605639 5.035934,6.880682 7.754237,10 C 95.035934,53.119318 90.328598,56.394361 90,60 v 15 c 0,8.220545 -6.043699,13.330438 -15,15 H 60 V 85 C 82.233639,81.83954 76.610169,78.335974 76.610169,66.612454 76.610169,58.975282 86.648437,50 86.648437,50 c 0,0 -10.038268,-10.246468 -10.038268,-17.88364 C 76.610169,20.39284 82.233639,18.160459 60,15 v -5 z"
       id="path814"
       inkscape:connector-curvature="0"
       sodipodi:nodetypes="cscccscccscsccc" />
  </g>
</svg>

<?xml version="1.0" encoding="UTF-8"?>
<svg width="100" height="100" version="1.1" viewBox="0 0 100 100" xmlns="http://www.w3.org/2000/svg">
 <g fill="#006400" fill-rule="evenodd">
  <path d="m25 10c-8.9563 1.6696-15 6.7795-15 15v15c-0.3286 3.6056-5.0359 6.8807-7.7542 10 2.7183 3.1193 7.4256 6.3944 7.7542 10v15c0 8.2205 6.0437 13.33 15 15h15v-5c-22.234-3.1605-16.61-6.664-16.61-18.388 0-7.6372-10.038-16.612-10.038-16.612s10.038-10.246 10.038-17.884c0-11.724-5.6235-13.956 16.61-17.116v-5z" style="paint-order:fill markers stroke"/>
  <path d="m75 10c8.9563 1.6696 15 6.7795 15 15v15c0.3286 3.6056 5.0359 6.8807 7.7542 10-2.7183 3.1193-7.4256 6.3944-7.7542 10v15c0 8.2205-6.0437 13.33-15 15h-15v-5c22.234-3.1605 16.61-6.664 16.61-18.388 0-7.6372 10.038-16.612 10.038-16.612s-10.038-10.246-10.038-17.884c0-11.724 5.6235-13.956-16.61-17.116v-5z" style="paint-order:fill markers stroke"/>
 </g>
</svg>
